app/img/header/header-logo.svg

<svg width="106" height="23" viewBox="0 0 106 23" fill="none" xmlns="http://www.w3.org/2000/svg">
<path d="M95.791 22.0426C99.1969 22.0189 102.594 21.9872 106 21.9635C106 20.2064 106 18.4493 105.992 16.6923H87.3143V13.3126C93.2009 13.2652 99.0707 13.2493 104.974 13.2335V8.42923C101.795 8.42923 101.097 8.44506 99.1632 8.42923C97.2038 8.40549 95.2444 8.42132 93.285 8.42132H87.348V5.572C87.3564 5.55618 87.39 5.52454 87.4236 5.49289L87.4236 5.49285C87.4573 5.46119 87.4909 5.4137 87.5245 5.4137L106 5.34247V0.0633181C105.815 0.0474886 105.63 0.0316591 105.445 0.0316591C97.3216 0.0158295 89.2064 0.00791477 81.0829 0C80.8222 0 80.5615 0.0870627 80.2588 0.142466V22.0031C80.6624 22.0426 81.0156 22.1139 81.3772 22.1139C86.179 22.098 90.9892 22.0743 95.791 22.0426Z" fill="white"/>
<path d="M46.9648 22.0585C46.9648 14.6819 46.9648 7.42406 46.9648 0.102892C47.3096 0.0633183 47.5787 0 47.8478 0C54.752 0.0237443 61.6561 0.0237444 68.5687 0.102892C69.9563 0.118722 71.3522 0.33242 72.7146 0.593608C75.1701 1.07641 76.6081 2.60396 77.0791 4.86759C77.3818 6.3239 77.5332 7.8198 77.6257 9.29986C77.7771 11.8009 77.5668 14.302 77.1211 16.7714C76.6754 19.225 75.2963 20.895 72.5884 21.5282C70.5197 22.011 68.4342 22.0347 66.3402 22.0426C60.79 22.0664 55.2397 22.0506 49.6895 22.0506C48.8402 22.0585 47.9992 22.0585 46.9648 22.0585ZM69.7376 15.3784C69.889 14.951 70.2254 14.4207 70.2506 13.8825C70.3347 12.0463 70.5197 10.1784 70.2674 8.36592C70.032 6.60884 69.7292 6.22101 67.6437 5.7857C66.9205 5.63532 66.1636 5.61949 65.4236 5.61157C61.8327 5.59574 58.2335 5.59574 54.6427 5.59574C54.4661 5.59574 54.2979 5.65906 54.0204 5.71447C54.0204 9.2682 54.0204 12.7903 54.0204 16.2728C54.2222 16.3519 54.3063 16.4073 54.3988 16.4073C58.2755 16.4073 62.1439 16.4311 66.0206 16.3757C67.2652 16.3678 68.5182 16.1778 69.7376 15.3784Z" fill="white"/>
<path fill-rule="evenodd" clip-rule="evenodd" d="M27.255 22.0572H35.3869C31.2663 14.5778 27.2634 7.32785 23.2689 0.09375H12.1516C11.7161 0.8762 11.2846 1.65075 10.8561 2.42016C9.92787 4.08677 9.01308 5.7292 8.0983 7.37534C7.41713 8.59817 6.73386 9.821 6.0506 11.0438C5.36733 12.2667 4.68406 13.4895 4.0029 14.7123C3.4961 15.6238 2.98063 16.5317 2.4641 17.4415C1.63498 18.9019 0.803123 20.3671 0 21.8594C4.24681 21.8594 4.66728 21.8435 8.21603 21.8435C8.80799 20.7669 9.40756 19.6688 10.0003 18.5832L10.0913 18.4164H25.2199C25.5931 19.0817 25.9571 19.7339 26.3107 20.3676C26.6344 20.9478 26.9495 21.5125 27.255 22.0572ZM22.6046 13.4618H12.7571L17.416 5.11963L22.6046 13.4618Z" fill="white"/>
<path d="M36.3525 0.0625C38.867 0.0625 41.2721 0.0625 43.6603 0.0625C43.9463 1.11516 43.9379 21.1316 43.6688 22.0102C41.2552 22.0102 38.8501 22.0102 36.3525 22.0102C36.3525 14.6811 36.3525 7.46281 36.3525 0.0625Z" fill="white"/>
</svg>

<svg width="106" height="23" fill="none" xmlns="http://www.w3.org/2000/svg"><path d="M95.791 22.043c3.406-.024 6.803-.056 10.209-.08 0-1.757 0-3.514-.008-5.27H87.314v-3.38a3282.05 3282.05 0 0117.66-.08V8.43c-3.179 0-3.877.016-5.81 0-1.96-.024-3.92-.008-5.879-.008h-5.937v-2.85c.008-.016.042-.047.076-.08.033-.03.067-.078.1-.078L106 5.342V.063a6.52 6.52 0 00-.555-.031C97.322.016 89.206.008 81.083 0c-.26 0-.522.087-.824.142v21.861c.403.04.757.11 1.118.11 4.802-.015 9.612-.039 14.414-.07zm-48.826.015V.104c.345-.04.614-.103.883-.103 6.904.024 13.808.024 20.72.103 1.388.016 2.784.23 4.147.49 2.455.483 3.893 2.011 4.364 4.275.303 1.456.454 2.952.547 4.432.151 2.5-.06 5.002-.505 7.471-.446 2.454-1.825 4.124-4.533 4.757-2.068.483-4.154.507-6.248.515-5.55.023-11.1.008-16.65.008-.85.008-1.69.008-2.725.008zm22.773-6.68c.151-.427.487-.957.513-1.495.084-1.837.269-3.705.016-5.517-.235-1.757-.538-2.145-2.623-2.58-.724-.15-1.48-.167-2.22-.174-3.591-.016-7.19-.016-10.781-.016-.177 0-.345.063-.623.118v10.559c.202.079.286.134.379.134 3.877 0 7.745.024 11.622-.031 1.244-.008 2.497-.198 3.717-.998z" fill="#fff"/><path fill-rule="evenodd" clip-rule="evenodd" d="M27.255 22.057h8.132c-4.12-7.48-8.124-14.73-12.118-21.963H12.152L10.856 2.42 8.098 7.375c-.68 1.223-1.364 2.446-2.047 3.669-.684 1.223-1.367 2.445-2.048 3.668a337.74 337.74 0 01-1.539 2.73C1.635 18.902.804 20.367 0 21.859c4.247 0 4.667-.016 8.216-.016A958.927 958.927 0 0010 18.583l.091-.167H25.22l1.09 1.952.945 1.69zm-4.65-8.595h-9.848l4.659-8.342 5.189 8.342z" fill="#fff"/><path d="M36.352.063h7.308c.286 1.052.278 21.069.009 21.947h-7.316V.062z" fill="#fff"/></svg>
